X:1
T:The Knight and the Shepherd's Daughter
M:4/4
L:1/4
K:A
 E| A A A A| F2 E E| A A A c| e3 e| f f e c/2c/2| c B A A/2B/2| c c B A|\
 F3 E/2E/2| A3/2 A/2 A c| e4| f/2- e e/2 e c| c2 BA/2-B/2| F E E C|\
 A,4| F G A F| E- F C E| B F/2F/2 FG/2-A/2| A3|| F E/2E/2 D E| A,3||\
